images/5569.svg

<?xml version="1.0" encoding="UTF-8"?>
<svg xmlns="http://www.w3.org/2000/svg" xmlns:xlink="http://www.w3.org/1999/xlink" width="300pt" height="300pt" viewBox="0 0 300 300" version="1.1">
<defs>
<g>
<symbol overflow="visible" id="glyph0-0">
<path style="stroke:none;" d="M 0.640625 2.296875 L 0.640625 -9.171875 L 7.140625 -9.171875 L 7.140625 2.296875 Z M 1.375 1.578125 L 6.421875 1.578125 L 6.421875 -8.4375 L 1.375 -8.4375 Z M 1.375 1.578125 "/>
</symbol>
<symbol overflow="visible" id="glyph0-1">
<path style="stroke:none;" d="M 1.28125 -9.484375 L 3 -9.484375 L 7.203125 -1.546875 L 7.203125 -9.484375 L 8.453125 -9.484375 L 8.453125 0 L 6.71875 0 L 2.515625 -7.921875 L 2.515625 0 L 1.28125 0 Z M 1.28125 -9.484375 "/>
</symbol>
<symbol overflow="visible" id="glyph0-2">
<path style="stroke:none;" d="M 5.125 -8.609375 C 4.1875 -8.609375 3.441406 -8.257812 2.890625 -7.5625 C 2.347656 -6.875 2.078125 -5.929688 2.078125 -4.734375 C 2.078125 -3.535156 2.347656 -2.585938 2.890625 -1.890625 C 3.441406 -1.203125 4.1875 -0.859375 5.125 -0.859375 C 6.050781 -0.859375 6.785156 -1.203125 7.328125 -1.890625 C 7.878906 -2.585938 8.15625 -3.535156 8.15625 -4.734375 C 8.15625 -5.929688 7.878906 -6.875 7.328125 -7.5625 C 6.785156 -8.257812 6.050781 -8.609375 5.125 -8.609375 Z M 5.125 -9.65625 C 6.445312 -9.65625 7.503906 -9.207031 8.296875 -8.3125 C 9.097656 -7.414062 9.5 -6.222656 9.5 -4.734375 C 9.5 -3.234375 9.097656 -2.035156 8.296875 -1.140625 C 7.503906 -0.253906 6.445312 0.1875 5.125 0.1875 C 3.789062 0.1875 2.722656 -0.253906 1.921875 -1.140625 C 1.128906 -2.035156 0.734375 -3.234375 0.734375 -4.734375 C 0.734375 -6.222656 1.128906 -7.414062 1.921875 -8.3125 C 2.722656 -9.207031 3.789062 -9.65625 5.125 -9.65625 Z M 5.125 -9.65625 "/>
</symbol>
<symbol overflow="visible" id="glyph0-3">
<path style="stroke:none;" d="M 1.28125 -9.484375 L 6.71875 -9.484375 L 6.71875 -8.390625 L 2.5625 -8.390625 L 2.5625 -5.609375 L 6.3125 -5.609375 L 6.3125 -4.53125 L 2.5625 -4.53125 L 2.5625 0 L 1.28125 0 Z M 1.28125 -9.484375 "/>
</symbol>
<symbol overflow="visible" id="glyph1-0">
<path style="stroke:none;" d="M 0.546875 1.9375 L 0.546875 -7.75 L 6.046875 -7.75 L 6.046875 1.9375 Z M 1.171875 1.328125 L 5.4375 1.328125 L 5.4375 -7.140625 L 1.171875 -7.140625 Z M 1.171875 1.328125 "/>
</symbol>
<symbol overflow="visible" id="glyph1-1">
<path style="stroke:none;" d="M 5.0625 -6.890625 L 5.0625 -3.90625 L 8.046875 -3.90625 L 8.046875 -2.984375 L 5.0625 -2.984375 L 5.0625 0 L 4.15625 0 L 4.15625 -2.984375 L 1.171875 -2.984375 L 1.171875 -3.90625 L 4.15625 -3.90625 L 4.15625 -6.890625 Z M 5.0625 -6.890625 "/>
</symbol>
<symbol overflow="visible" id="glyph1-2">
<path style="stroke:none;" d="M 0.53125 -3.453125 L 3.4375 -3.453125 L 3.4375 -2.578125 L 0.53125 -2.578125 Z M 0.53125 -3.453125 "/>
</symbol>
</g>
</defs>
<g id="surface34545">
<rect x="0" y="0" width="300" height="300" style="fill:rgb(100%,100%,100%);fill-opacity:1;stroke:none;"/>
<path style="fill:none;stroke-width:1.2;stroke-linecap:butt;stroke-linejoin:miter;stroke:rgb(0%,0%,0%);stroke-opacity:1;stroke-miterlimit:10;" d="M 264.75 206.785156 L 248.355469 178.394531 "/>
<path style="fill:none;stroke-width:1.2;stroke-linecap:butt;stroke-linejoin:miter;stroke:rgb(0%,0%,0%);stroke-opacity:1;stroke-miterlimit:10;" d="M 248.355469 178.394531 L 215.570312 178.394531 "/>
<path style="fill:none;stroke-width:1.2;stroke-linecap:butt;stroke-linejoin:miter;stroke:rgb(0%,0%,0%);stroke-opacity:1;stroke-miterlimit:10;" d="M 215.570312 178.394531 L 207.375 164.195312 "/>
<path style="fill:none;stroke-width:1.2;stroke-linecap:butt;stroke-linejoin:miter;stroke:rgb(0%,0%,100%);stroke-opacity:1;stroke-miterlimit:10;" d="M 207.375 164.195312 L 199.179688 150 "/>
<path style="fill:none;stroke-width:1.2;stroke-linecap:butt;stroke-linejoin:miter;stroke:rgb(0%,0%,100%);stroke-opacity:1;stroke-miterlimit:10;" d="M 199.179688 150 L 207.375 135.804688 "/>
<path style="fill:none;stroke-width:1.2;stroke-linecap:butt;stroke-linejoin:miter;stroke:rgb(0%,0%,0%);stroke-opacity:1;stroke-miterlimit:10;" d="M 207.375 135.804688 L 215.570312 121.605469 "/>
<path style="fill:none;stroke-width:1.2;stroke-linecap:butt;stroke-linejoin:miter;stroke:rgb(0%,0%,100%);stroke-opacity:1;stroke-miterlimit:10;" d="M 199.179688 150 L 182.785156 150 "/>
<path style="fill:none;stroke-width:1.2;stroke-linecap:butt;stroke-linejoin:miter;stroke:rgb(0%,0%,0%);stroke-opacity:1;stroke-miterlimit:10;" d="M 182.785156 150 L 166.394531 150 "/>
<path style=" stroke:none;fill-rule:nonzero;fill:rgb(100%,100%,100%);fill-opacity:1;" d="M 194.179688 142 L 204.179688 142 L 204.179688 158 L 194.179688 158 Z M 194.179688 142 "/>
<g style="fill:rgb(0%,0%,100%);fill-opacity:1;">
  <use xlink:href="#glyph0-1" x="194.179688" y="154.375977"/>
</g>
<path style="fill:none;stroke-width:1.2;stroke-linecap:butt;stroke-linejoin:miter;stroke:rgb(0%,0%,0%);stroke-opacity:1;stroke-miterlimit:10;" d="M 215.570312 121.605469 L 248.355469 121.605469 "/>
<path style="fill:none;stroke-width:1.2;stroke-linecap:butt;stroke-linejoin:miter;stroke:rgb(0%,0%,0%);stroke-opacity:1;stroke-miterlimit:10;" d="M 248.355469 121.605469 L 264.75 93.214844 "/>
<path style="fill:none;stroke-width:1.2;stroke-linecap:butt;stroke-linejoin:miter;stroke:rgb(0%,0%,0%);stroke-opacity:1;stroke-miterlimit:10;" d="M 166.394531 150 L 150 178.394531 "/>
<path style="fill:none;stroke-width:1.2;stroke-linecap:butt;stroke-linejoin:miter;stroke:rgb(0%,0%,0%);stroke-opacity:1;stroke-miterlimit:10;" d="M 158.074219 148.980469 L 144.957031 171.695312 "/>
<path style="fill:none;stroke-width:1.2;stroke-linecap:butt;stroke-linejoin:miter;stroke:rgb(0%,0%,0%);stroke-opacity:1;stroke-miterlimit:10;" d="M 150 121.605469 L 166.394531 150 "/>
<path style="fill:none;stroke-width:1.2;stroke-linecap:butt;stroke-linejoin:miter;stroke:rgb(0%,0%,0%);stroke-opacity:1;stroke-miterlimit:10;" d="M 150 178.394531 L 117.214844 178.394531 "/>
<path style="fill:none;stroke-width:1.2;stroke-linecap:butt;stroke-linejoin:miter;stroke:rgb(0%,0%,0%);stroke-opacity:1;stroke-miterlimit:10;" d="M 150 178.394531 L 158.195312 192.589844 "/>
<path style="fill:none;stroke-width:1.2;stroke-linecap:butt;stroke-linejoin:miter;stroke:rgb(0%,0%,100%);stroke-opacity:1;stroke-miterlimit:10;" d="M 158.195312 192.589844 L 166.394531 206.785156 "/>
<path style="fill:none;stroke-width:1.2;stroke-linecap:butt;stroke-linejoin:miter;stroke:rgb(0%,0%,0%);stroke-opacity:1;stroke-miterlimit:10;" d="M 117.214844 178.394531 L 100.820312 150 "/>
<path style="fill:none;stroke-width:1.2;stroke-linecap:butt;stroke-linejoin:miter;stroke:rgb(0%,0%,0%);stroke-opacity:1;stroke-miterlimit:10;" d="M 122.253906 171.695312 L 109.140625 148.980469 "/>
<path style="fill:none;stroke-width:1.2;stroke-linecap:butt;stroke-linejoin:miter;stroke:rgb(0%,0%,0%);stroke-opacity:1;stroke-miterlimit:10;" d="M 100.820312 150 L 117.214844 121.605469 "/>
<path style="fill:none;stroke-width:1.2;stroke-linecap:butt;stroke-linejoin:miter;stroke:rgb(0%,0%,0%);stroke-opacity:1;stroke-miterlimit:10;" d="M 100.820312 150 L 68.035156 150 "/>
<path style="fill:none;stroke-width:1.2;stroke-linecap:butt;stroke-linejoin:miter;stroke:rgb(0%,0%,0%);stroke-opacity:1;stroke-miterlimit:10;" d="M 117.214844 121.605469 L 150 121.605469 "/>
<path style="fill:none;stroke-width:1.2;stroke-linecap:butt;stroke-linejoin:miter;stroke:rgb(0%,0%,0%);stroke-opacity:1;stroke-miterlimit:10;" d="M 120.492188 129.320312 L 146.722656 129.320312 "/>
<path style="fill:none;stroke-width:1.2;stroke-linecap:butt;stroke-linejoin:miter;stroke:rgb(0%,0%,0%);stroke-opacity:1;stroke-miterlimit:10;" d="M 150 121.605469 L 158.195312 107.410156 "/>
<path style="fill:none;stroke-width:1.2;stroke-linecap:butt;stroke-linejoin:miter;stroke:rgb(0%,0%,100%);stroke-opacity:1;stroke-miterlimit:10;" d="M 158.195312 107.410156 L 166.394531 93.214844 "/>
<path style="fill:none;stroke-width:1.2;stroke-linecap:butt;stroke-linejoin:miter;stroke:rgb(0%,0%,100%);stroke-opacity:1;stroke-miterlimit:10;" d="M 166.394531 97.070312 L 182.785156 97.070312 "/>
<path style="fill:none;stroke-width:1.2;stroke-linecap:butt;stroke-linejoin:miter;stroke:rgb(100%,0%,0%);stroke-opacity:1;stroke-miterlimit:10;" d="M 182.785156 97.070312 L 199.179688 97.070312 "/>
<path style="fill:none;stroke-width:1.2;stroke-linecap:butt;stroke-linejoin:miter;stroke:rgb(0%,0%,100%);stroke-opacity:1;stroke-miterlimit:10;" d="M 166.394531 89.355469 L 182.785156 89.355469 "/>
<path style="fill:none;stroke-width:1.2;stroke-linecap:butt;stroke-linejoin:miter;stroke:rgb(100%,0%,0%);stroke-opacity:1;stroke-miterlimit:10;" d="M 182.785156 89.355469 L 199.179688 89.355469 "/>
<path style="fill:none;stroke-width:1.2;stroke-linecap:butt;stroke-linejoin:miter;stroke:rgb(0%,0%,100%);stroke-opacity:1;stroke-miterlimit:10;" d="M 166.394531 93.214844 L 158.195312 79.015625 "/>
<path style="fill:none;stroke-width:1.2;stroke-linecap:butt;stroke-linejoin:miter;stroke:rgb(100%,0%,0%);stroke-opacity:1;stroke-miterlimit:10;" d="M 158.195312 79.015625 L 150 64.820312 "/>
<path style=" stroke:none;fill-rule:nonzero;fill:rgb(100%,100%,100%);fill-opacity:1;" d="M 156.394531 83.714844 L 176.394531 83.714844 L 176.394531 102.714844 L 156.394531 102.714844 Z M 156.394531 83.714844 "/>
<g style="fill:rgb(0%,0%,100%);fill-opacity:1;">
  <use xlink:href="#glyph0-1" x="156.394531" y="98.910156"/>
</g>
<g style="fill:rgb(0%,0%,100%);fill-opacity:1;">
  <use xlink:href="#glyph1-1" x="166.364258" y="94.027344"/>
</g>
<path style=" stroke:none;fill-rule:nonzero;fill:rgb(100%,100%,100%);fill-opacity:1;" d="M 194.179688 85.214844 L 205.179688 85.214844 L 205.179688 101.214844 L 194.179688 101.214844 Z M 194.179688 85.214844 "/>
<g style="fill:rgb(100%,0%,0%);fill-opacity:1;">
  <use xlink:href="#glyph0-2" x="194.179688" y="97.59082"/>
</g>
<path style=" stroke:none;fill-rule:nonzero;fill:rgb(100%,100%,100%);fill-opacity:1;" d="M 135 55.320312 L 150 55.320312 L 150 74.320312 L 135 74.320312 Z M 135 55.320312 "/>
<g style="fill:rgb(100%,0%,0%);fill-opacity:1;">
  <use xlink:href="#glyph1-2" x="135" y="65.632812"/>
</g>
<g style="fill:rgb(100%,0%,0%);fill-opacity:1;">
  <use xlink:href="#glyph0-2" x="139.008789" y="70.515625"/>
</g>
<path style="fill:none;stroke-width:1.2;stroke-linecap:butt;stroke-linejoin:miter;stroke:rgb(0%,0%,0%);stroke-opacity:1;stroke-miterlimit:10;" d="M 68.035156 150 L 51.644531 150 "/>
<path style="fill:none;stroke-width:1.2;stroke-linecap:butt;stroke-linejoin:miter;stroke:rgb(20%,80%,80%);stroke-opacity:1;stroke-miterlimit:10;" d="M 51.644531 150 L 35.25 150 "/>
<path style="fill:none;stroke-width:1.2;stroke-linecap:butt;stroke-linejoin:miter;stroke:rgb(0%,0%,0%);stroke-opacity:1;stroke-miterlimit:10;" d="M 68.035156 150 L 68.035156 133.605469 "/>
<path style="fill:none;stroke-width:1.2;stroke-linecap:butt;stroke-linejoin:miter;stroke:rgb(20%,80%,80%);stroke-opacity:1;stroke-miterlimit:10;" d="M 68.035156 133.605469 L 68.035156 117.214844 "/>
<path style="fill:none;stroke-width:1.2;stroke-linecap:butt;stroke-linejoin:miter;stroke:rgb(0%,0%,0%);stroke-opacity:1;stroke-miterlimit:10;" d="M 68.035156 150 L 68.035156 166.394531 "/>
<path style="fill:none;stroke-width:1.2;stroke-linecap:butt;stroke-linejoin:miter;stroke:rgb(20%,80%,80%);stroke-opacity:1;stroke-miterlimit:10;" d="M 68.035156 166.394531 L 68.035156 182.785156 "/>
<path style=" stroke:none;fill-rule:nonzero;fill:rgb(100%,100%,100%);fill-opacity:1;" d="M 27.25 142 L 35.25 142 L 35.25 158 L 27.25 158 Z M 27.25 142 "/>
<g style="fill:rgb(20%,80%,80%);fill-opacity:1;">
  <use xlink:href="#glyph0-3" x="27.25" y="154.375977"/>
</g>
<path style=" stroke:none;fill-rule:nonzero;fill:rgb(100%,100%,100%);fill-opacity:1;" d="M 64.035156 109.214844 L 72.035156 109.214844 L 72.035156 125.214844 L 64.035156 125.214844 Z M 64.035156 109.214844 "/>
<g style="fill:rgb(20%,80%,80%);fill-opacity:1;">
  <use xlink:href="#glyph0-3" x="64.035156" y="121.59082"/>
</g>
<path style=" stroke:none;fill-rule:nonzero;fill:rgb(100%,100%,100%);fill-opacity:1;" d="M 64.035156 174.785156 L 72.035156 174.785156 L 72.035156 190.785156 L 64.035156 190.785156 Z M 64.035156 174.785156 "/>
<g style="fill:rgb(20%,80%,80%);fill-opacity:1;">
  <use xlink:href="#glyph0-3" x="64.035156" y="187.161133"/>
</g>
<path style="fill:none;stroke-width:1.2;stroke-linecap:butt;stroke-linejoin:miter;stroke:rgb(0%,0%,100%);stroke-opacity:1;stroke-miterlimit:10;" d="M 166.394531 210.644531 L 182.785156 210.644531 "/>
<path style="fill:none;stroke-width:1.2;stroke-linecap:butt;stroke-linejoin:miter;stroke:rgb(100%,0%,0%);stroke-opacity:1;stroke-miterlimit:10;" d="M 182.785156 210.644531 L 199.179688 210.644531 "/>
<path style="fill:none;stroke-width:1.2;stroke-linecap:butt;stroke-linejoin:miter;stroke:rgb(0%,0%,100%);stroke-opacity:1;stroke-miterlimit:10;" d="M 166.394531 202.929688 L 182.785156 202.929688 "/>
<path style="fill:none;stroke-width:1.2;stroke-linecap:butt;stroke-linejoin:miter;stroke:rgb(100%,0%,0%);stroke-opacity:1;stroke-miterlimit:10;" d="M 182.785156 202.929688 L 199.179688 202.929688 "/>
<path style="fill:none;stroke-width:1.2;stroke-linecap:butt;stroke-linejoin:miter;stroke:rgb(0%,0%,100%);stroke-opacity:1;stroke-miterlimit:10;" d="M 166.394531 206.785156 L 158.195312 220.984375 "/>
<path style="fill:none;stroke-width:1.2;stroke-linecap:butt;stroke-linejoin:miter;stroke:rgb(100%,0%,0%);stroke-opacity:1;stroke-miterlimit:10;" d="M 158.195312 220.984375 L 150 235.179688 "/>
<path style=" stroke:none;fill-rule:nonzero;fill:rgb(100%,100%,100%);fill-opacity:1;" d="M 156.394531 197.285156 L 176.394531 197.285156 L 176.394531 216.285156 L 156.394531 216.285156 Z M 156.394531 197.285156 "/>
<g style="fill:rgb(0%,0%,100%);fill-opacity:1;">
  <use xlink:href="#glyph0-1" x="156.394531" y="212.480469"/>
</g>
<g style="fill:rgb(0%,0%,100%);fill-opacity:1;">
  <use xlink:href="#glyph1-1" x="166.364258" y="207.597656"/>
</g>
<path style=" stroke:none;fill-rule:nonzero;fill:rgb(100%,100%,100%);fill-opacity:1;" d="M 194.179688 198.785156 L 205.179688 198.785156 L 205.179688 214.785156 L 194.179688 214.785156 Z M 194.179688 198.785156 "/>
<g style="fill:rgb(100%,0%,0%);fill-opacity:1;">
  <use xlink:href="#glyph0-2" x="194.179688" y="211.161133"/>
</g>
<path style=" stroke:none;fill-rule:nonzero;fill:rgb(100%,100%,100%);fill-opacity:1;" d="M 135 225.679688 L 150 225.679688 L 150 244.679688 L 135 244.679688 Z M 135 225.679688 "/>
<g style="fill:rgb(100%,0%,0%);fill-opacity:1;">
  <use xlink:href="#glyph1-2" x="135" y="235.992188"/>
</g>
<g style="fill:rgb(100%,0%,0%);fill-opacity:1;">
  <use xlink:href="#glyph0-2" x="139.008789" y="240.875"/>
</g>
</g>
</svg>

<svg xmlns="http://www.w3.org/2000/svg" xmlns:xlink="http://www.w3.org/1999/xlink" width="300pt" height="300pt" viewBox="0 0 300 300"><defs><symbol overflow="visible"><path d="M.64 2.297v-11.47h6.5v11.47zm.735-.72h5.047V-8.436H1.375zm0 0"/></symbol><symbol overflow="visible" id="a"><path d="M1.28-9.484H3l4.203 7.937v-7.937h1.25V0H6.72L2.515-7.922V0H1.28zm0 0"/></symbol><symbol overflow="visible" id="c"><path d="M5.125-8.61c-.938 0-1.684.352-2.234 1.047-.542.688-.812 1.633-.812 2.83 0 1.198.27 2.147.813 2.842.55.687 1.297 1.03 2.235 1.03.926 0 1.66-.343 2.203-1.03.55-.696.828-1.645.828-2.844 0-1.196-.277-2.14-.828-2.829-.543-.695-1.277-1.046-2.203-1.046zm0-1.046c1.32 0 2.38.45 3.172 1.344.8.898 1.203 2.09 1.203 3.578 0 1.5-.402 2.7-1.203 3.593C7.504-.255 6.445.186 5.125.186c-1.336 0-2.402-.44-3.203-1.328C1.13-2.036.734-3.235.734-4.735c0-1.49.395-2.68 1.188-3.579.8-.894 1.867-1.343 3.203-1.343zm0 0"/></symbol><symbol overflow="visible" id="e"><path d="M1.28-9.484h5.44v1.093H2.562v2.78h3.75v1.08h-3.75V0H1.28zm0 0"/></symbol><symbol overflow="visible"><path d="M.547 1.938V-7.75h5.5v9.688zm.625-.61h4.266v-8.47H1.171zm0 0"/></symbol><symbol overflow="visible" id="b"><path d="M5.063-6.89v2.984h2.984v.922H5.062V0h-.906v-2.984H1.172v-.922h2.984V-6.89zm0 0"/></symbol><symbol overflow="visible" id="d"><path d="M.53-3.453h2.907v.875H.53zm0 0"/></symbol></defs><g><path fill="#fff" d="M0 0h300v300H0z"/><path d="M264.75 206.785l-16.395-28.39M248.355 178.395H215.57M215.57 178.395l-8.195-14.2" stroke-width="1.2" stroke="#000" stroke-miterlimit="10" fill="none"/><path d="M207.375 164.195L199.18 150M199.18 150l8.195-14.195" stroke-width="1.2" stroke="#00f" stroke-miterlimit="10" fill="none"/><path d="M207.375 135.805l8.195-14.2" stroke-width="1.2" stroke="#000" stroke-miterlimit="10" fill="none"/><path d="M199.18 150h-16.395" stroke-width="1.2" stroke="#00f" stroke-miterlimit="10" fill="none"/><path d="M182.785 150h-16.39" stroke-width="1.2" stroke="#000" stroke-miterlimit="10" fill="none"/><path d="M194.18 142h10v16h-10zm0 0" fill="#fff"/><use xlink:href="#a" x="194.18" y="154.376" fill="#00f"/><path d="M215.57 121.605h32.785M248.355 121.605l16.395-28.39M166.395 150L150 178.395M158.074 148.98l-13.117 22.715M150 121.605L166.395 150M150 178.395h-32.785M150 178.395l8.195 14.195" stroke-width="1.2" stroke="#000" stroke-miterlimit="10" fill="none"/><path d="M158.195 192.59l8.2 14.195" stroke-width="1.2" stroke="#00f" stroke-miterlimit="10" fill="none"/><path d="M117.215 178.395L100.82 150M122.254 171.695L109.14 148.98M100.82 150l16.395-28.395M100.82 150H68.035M117.215 121.605H150M120.492 129.32h26.23M150 121.605l8.195-14.195" stroke-width="1.2" stroke="#000" stroke-miterlimit="10" fill="none"/><path d="M158.195 107.41l8.2-14.195M166.395 97.07h16.39" stroke-width="1.2" stroke="#00f" stroke-miterlimit="10" fill="none"/><path d="M182.785 97.07h16.395" stroke-width="1.2" stroke="#f00" stroke-miterlimit="10" fill="none"/><path d="M166.395 89.355h16.39" stroke-width="1.2" stroke="#00f" stroke-miterlimit="10" fill="none"/><path d="M182.785 89.355h16.395" stroke-width="1.2" stroke="#f00" stroke-miterlimit="10" fill="none"/><path d="M166.395 93.215l-8.2-14.2" stroke-width="1.2" stroke="#00f" stroke-miterlimit="10" fill="none"/><path d="M158.195 79.016L150 64.82" stroke-width="1.2" stroke="#f00" stroke-miterlimit="10" fill="none"/><path d="M156.395 83.715h20v19h-20zm0 0" fill="#fff"/><use xlink:href="#a" x="156.395" y="98.91" fill="#00f"/><use xlink:href="#b" x="166.364" y="94.027" fill="#00f"/><path d="M194.18 85.215h11v16h-11zm0 0" fill="#fff"/><use xlink:href="#c" x="194.18" y="97.591" fill="#f00"/><path d="M135 55.32h15v19h-15zm0 0" fill="#fff"/><use xlink:href="#d" x="135" y="65.633" fill="#f00"/><use xlink:href="#c" x="139.009" y="70.516" fill="#f00"/><path d="M68.035 150h-16.39" stroke-width="1.2" stroke="#000" stroke-miterlimit="10" fill="none"/><path d="M51.645 150H35.25" stroke-width="1.2" stroke="#3cc" stroke-miterlimit="10" fill="none"/><path d="M68.035 150v-16.395" stroke-width="1.2" stroke="#000" stroke-miterlimit="10" fill="none"/><path d="M68.035 133.605v-16.39" stroke-width="1.2" stroke="#3cc" stroke-miterlimit="10" fill="none"/><path d="M68.035 150v16.395" stroke-width="1.2" stroke="#000" stroke-miterlimit="10" fill="none"/><path d="M68.035 166.395v16.39" stroke-width="1.2" stroke="#3cc" stroke-miterlimit="10" fill="none"/><path d="M27.25 142h8v16h-8zm0 0" fill="#fff"/><use xlink:href="#e" x="27.25" y="154.376" fill="#3cc"/><path d="M64.035 109.215h8v16h-8zm0 0" fill="#fff"/><use xlink:href="#e" x="64.035" y="121.591" fill="#3cc"/><path d="M64.035 174.785h8v16h-8zm0 0" fill="#fff"/><use xlink:href="#e" x="64.035" y="187.161" fill="#3cc"/><path d="M166.395 210.645h16.39" stroke-width="1.2" stroke="#00f" stroke-miterlimit="10" fill="none"/><path d="M182.785 210.645h16.395" stroke-width="1.2" stroke="#f00" stroke-miterlimit="10" fill="none"/><path d="M166.395 202.93h16.39" stroke-width="1.2" stroke="#00f" stroke-miterlimit="10" fill="none"/><path d="M182.785 202.93h16.395" stroke-width="1.2" stroke="#f00" stroke-miterlimit="10" fill="none"/><path d="M166.395 206.785l-8.2 14.2" stroke-width="1.2" stroke="#00f" stroke-miterlimit="10" fill="none"/><path d="M158.195 220.984L150 235.18" stroke-width="1.2" stroke="#f00" stroke-miterlimit="10" fill="none"/><path d="M156.395 197.285h20v19h-20zm0 0" fill="#fff"/><use xlink:href="#a" x="156.395" y="212.48" fill="#00f"/><use xlink:href="#b" x="166.364" y="207.598" fill="#00f"/><path d="M194.18 198.785h11v16h-11zm0 0" fill="#fff"/><use xlink:href="#c" x="194.18" y="211.161" fill="#f00"/><path d="M135 225.68h15v19h-15zm0 0" fill="#fff"/><use xlink:href="#d" x="135" y="235.992" fill="#f00"/><use xlink:href="#c" x="139.009" y="240.875" fill="#f00"/></g></svg>
